raw-svg/pound.svg

<svg viewBox="0 0 24 24" xmlns="http://www.w3.org/2000/svg"><path d="m17.54 19.25h-9.44l2-2.82a.76.76 0 0 0 .14-.43v-3.25h3.25a.75.75 0 0 0 0-1.5h-3.28v-3.25a3.09 3.09 0 0 1 3.17-3.25 3.14 3.14 0 0 1 3.33 3.41v1a.75.75 0 0 0 1.5 0v-1a4.62 4.62 0 0 0 -4.83-4.91 4.57 4.57 0 0 0 -4.67 4.75v3.25h-2.25a.75.75 0 0 0 0 1.5h2.25v3l-2.66 3.82a.76.76 0 0 0 0 .78.74.74 0 0 0 .66.4h10.83a.75.75 0 0 0 0-1.5z"/></svg>

<svg xmlns="http://www.w3.org/2000/svg" viewBox="0 0 24 24"><g id="pound"><path d="M17.54,19.25H8.1l2-2.82a.76.76,0,0,0,.14-.43V12.75h3.25a.75.75,0,0,0,0-1.5H10.21V8a3.09,3.09,0,0,1,3.17-3.25,3.14,3.14,0,0,1,3.33,3.41v1a.75.75,0,0,0,1.5,0v-1a4.62,4.62,0,0,0-4.83-4.91A4.57,4.57,0,0,0,8.71,8v3.25H6.46a.75.75,0,0,0,0,1.5H8.71v3L6.05,19.57a.76.76,0,0,0,0,.78.74.74,0,0,0,.66.4H17.54a.75.75,0,0,0,0-1.5Z"/></g></svg>
